48x48/apps/mhwd.svg

<svg xmlns="http://www.w3.org/2000/svg" width="48" height="48" version="1.1" id="svg8">
    <defs id="defs2">
        <style type="text/css" id="current-color-scheme">
            .ColorScheme-Text{color:#122036}
        </style>
    </defs>
    <g id="layer1" transform="translate(0 -266.65)">
        <g id="g1535" transform="translate(35 -15)">
            <g id="g911" transform="translate(-35 15)">
                <g id="g5422" transform="translate(-24 -4)">
                    <path style="opacity:1;fill:#398b9cbef;fill-opacity:1;stroke:none;stroke-width:3.88529491;stroke-linecap:round;stroke-linejoin:round;stroke-miterlimit:4;stroke-dasharray:none;stroke-opacity:1" d="M29 272.65h38c1.662 0 3 1.338 3 3v38c0 1.662-1.338 3-3 3H29c-1.662 0-3-1.338-3-3v-38c0-1.662 1.338-3 3-3z" id="rect854"/>
                    <path style="opacity:1;fill:#4b6377;fill-opacity:1;stroke:none;stroke-width:3.70869064;stroke-linecap:round;stroke-linejoin:round;stroke-miterlimit:4;stroke-dasharray:none;stroke-opacity:1" d="M29 273.65h38c1.108 0 2 .892 2 2v38c0 1.108-.892 2-2 2H29c-1.108 0-2-.892-2-2v-38c0-1.108.892-2 2-2z" id="rect854-2"/>
                </g>
                <path style="opacity:.98000004;fill:#dbe5ec;fill-opacity:1;stroke:none;stroke-width:2;stroke-linecap:round;stroke-linejoin:round;stroke-miterlimit:4;stroke-dasharray:none;stroke-dashoffset:0;stroke-opacity:1" d="M27 5v2h2V5h-2zm2 2v2h2V7h-2zm2 0h2V5h-2v2zm2 0v2h2V7h-2zm2 0h2V5h-2v2zm2 0v2h2V7h-2zm2 0h2V5h-2v2zm2 0v2h2V7h-2zm0 5v2h2v-2h-2zm0 2h-2v2h2v-2zm0 2v2h2v-2h-2zm0 2h-2v2h2v-2zm0 2v2h2v-2h-2zM5 25v2h2v-2H5zm2 2v2h2v-2H7zm0 2H5v2h2v-2zm0 2v2h2v-2H7zm0 2H5v2h2v-2zm-2 4v6h6l-6-6zm10 2v2h2v-2h-2zm2 2v2h2v-2h-2zm2 0h2v-2h-2v2zm2 0v2h2v-2h-2zm2 0h2v-2h-2v2zm2 0v2h2v-2h-2zm-10 0h-2v2h2v-2z" transform="translate(0 266.65)" id="rect998-9"/>
                <path style="opacity:1;fill:#398b9cbef;fill-opacity:1;stroke:none;stroke-width:2.5;stroke-linecap:round;stroke-linejoin:round;stroke-miterlimit:4;stroke-dasharray:none;stroke-opacity:1" d="M16.5 280.65h15c1.385 0 2.5 1.115 2.5 2.5v15c0 1.385-1.115 2.5-2.5 2.5h-15a2.495 2.495 0 0 1-2.5-2.5v-15c0-1.385 1.115-2.5 2.5-2.5z" id="rect905"/>
                <path style="opacity:1;fill:#59bdfc;fill-opacity:1;stroke:none;stroke-width:2.57142854;stroke-linecap:round;stroke-linejoin:round;stroke-miterlimit:4;stroke-dasharray:none;stroke-opacity:1" d="M16.286 281.65c-.713 0-1.286.573-1.286 1.286v15.428c0 .713.573 1.286 1.286 1.286h15.428c.713 0 1.286-.573 1.286-1.286v-15.428c0-.713-.573-1.286-1.286-1.286zm5.714 1h3v1h-3zm4 0h5v1h-5zm-3 2h3v1h-3zm4 0h4v1h-4zm-11 10 4 4h-4z" id="rect907"/>
            </g>
        </g>
    </g>
</svg>

<?xml version="1.0" encoding="UTF-8" standalone="no"?>
<!-- Created with Inkscape (http://www.inkscape.org/) -->

<svg
   xmlns:dc="http://purl.org/dc/elements/1.1/"
   xmlns:cc="http://creativecommons.org/ns#"
   xmlns:rdf="http://www.w3.org/1999/02/22-rdf-syntax-ns#"
   xmlns:svg="http://www.w3.org/2000/svg"
   xmlns="http://www.w3.org/2000/svg"
   xmlns:sodipodi="http://sodipodi.sourceforge.net/DTD/sodipodi-0.dtd"
   xmlns:inkscape="http://www.inkscape.org/namespaces/inkscape"
   width="48"
   height="48"
   viewBox="0 0 48 48"
   version="1.1"
   id="svg8"
   inkscape:version="0.92.3 (2405546, 2018-03-11)"
   sodipodi:docname="mhwd.svg">
  <title
     id="title7895">Antu icon Theme</title>
  <defs
     id="defs2">
    <style
       type="text/css"
       id="current-color-scheme">
      .ColorScheme-Text {
        color:#122036;
      }
      </style>
    <style
       id="current-color-scheme-5"
       type="text/css">
      .ColorScheme-Text {
        color:#122036;
      }
      </style>
    <style
       id="current-color-scheme-2"
       type="text/css">
      .ColorScheme-Text {
        color:#122036;
      }
      </style>
    <style
       id="current-color-scheme-1"
       type="text/css">
      .ColorScheme-Text {
        color:#122036;
      }
      </style>
    <style
       type="text/css"
       id="current-color-scheme-10">
      .ColorScheme-Text {
        color:#122036;
      }
      </style>
    <style
       type="text/css"
       id="current-color-scheme-20">
      .ColorScheme-Text {
        color:#122036;
      }
      </style>
    <style
       id="current-color-scheme-1-2"
       type="text/css">
      .ColorScheme-Text {
        color:#122036;
      }
      </style>
    <style
       id="current-color-scheme-9"
       type="text/css">
      .ColorScheme-Text {
        color:#122036;
      }
      </style>
    <style
       type="text/css"
       id="current-color-scheme-53">
      .ColorScheme-Text {
        color:#122036;
      }
      </style>
    <style
       id="current-color-scheme-5-3"
       type="text/css">
      .ColorScheme-Text {
        color:#122036;
      }
      </style>
    <style
       id="current-color-scheme-2-7"
       type="text/css">
      .ColorScheme-Text {
        color:#122036;
      }
      </style>
    <style
       id="current-color-scheme-1-1"
       type="text/css">
      .ColorScheme-Text {
        color:#122036;
      }
      </style>
    <style
       type="text/css"
       id="current-color-scheme-10-5">
      .ColorScheme-Text {
        color:#122036;
      }
      </style>
  </defs>
  <sodipodi:namedview
     id="base"
     pagecolor="#ffffff"
     bordercolor="#666666"
     borderopacity="1.0"
     inkscape:pageopacity="0.0"
     inkscape:pageshadow="2"
     inkscape:zoom="16"
     inkscape:cx="46.535846"
     inkscape:cy="19.452261"
     inkscape:document-units="px"
     inkscape:current-layer="g911"
     showgrid="true"
     units="px"
     inkscape:window-width="1874"
     inkscape:window-height="1141"
     inkscape:window-x="46"
     inkscape:window-y="30"
     inkscape:window-maximized="1"
     objecttolerance="10"
     gridtolerance="10"
     guidetolerance="10"
     inkscape:snap-bbox="true"
     inkscape:bbox-nodes="true"
     inkscape:bbox-paths="true"
     inkscape:snap-bbox-edge-midpoints="true"
     inkscape:snap-bbox-midpoints="true"
     inkscape:object-paths="true"
     inkscape:snap-intersection-paths="true"
     inkscape:object-nodes="true"
     inkscape:snap-smooth-nodes="false"
     inkscape:snap-midpoints="false"
     inkscape:showpageshadow="false">
    <inkscape:grid
       type="xygrid"
       id="grid7897"
       empspacing="4" />
  </sodipodi:namedview>
  <metadata
     id="metadata5">
    <rdf:RDF>
      <cc:Work
         rdf:about="">
        <dc:format>image/svg+xml</dc:format>
        <dc:type
           rdf:resource="http://purl.org/dc/dcmitype/StillImage" />
        <dc:title>Antu icon Theme</dc:title>
      </cc:Work>
    </rdf:RDF>
  </metadata>
  <g
     inkscape:label="Capa 1"
     inkscape:groupmode="layer"
     id="layer1"
     transform="translate(0,-266.64999)">
    <g
       id="g1535"
       transform="translate(35,-15.000005)">
      <g
         id="g911"
         transform="translate(-35,15)">
        <g
           id="g5422"
           transform="translate(-24,-4)">
          <g
             transform="matrix(5.5433071,0,0,5.5433071,24.533333,-1328.2455)"
             id="layer1-3-2"
             inkscape:label="Capa 1" />
          <path
             style="opacity:1;fill:#398b9cbef;fill-opacity:1;stroke:none;stroke-width:3.88529491;stroke-linecap:round;stroke-linejoin:round;stroke-miterlimit:4;stroke-dasharray:none;stroke-opacity:1"
             d="m 29,272.64999 h 38 c 1.662,0 3,1.338 3,3 v 38 c 0,1.662 -1.338,3 -3,3 H 29 c -1.662,0 -3,-1.338 -3,-3 v -38 c 0,-1.662 1.338,-3 3,-3 z"
             id="rect854" />
          <path
             style="opacity:1;fill:#4b6377;fill-opacity:1;stroke:none;stroke-width:3.70869064;stroke-linecap:round;stroke-linejoin:round;stroke-miterlimit:4;stroke-dasharray:none;stroke-opacity:1"
             d="m 29,273.64999 h 38 c 1.108,0 2,0.892 2,2 v 38 c 0,1.108 -0.892,2 -2,2 H 29 c -1.108,0 -2,-0.892 -2,-2 v -38 c 0,-1.108 0.892,-2 2,-2 z"
             id="rect854-2" />
          <g
             transform="matrix(1.4666667,0,0,1.4666667,24.533333,-143.36999)"
             id="layer1-6-2"
             inkscape:label="Capa 1">
            <g
               transform="translate(8.9999995,-18.000004)"
               id="g1469-7" />
          </g>
        </g>
        <path
           style="opacity:0.98000004;fill:#dbe5ec;fill-opacity:1;stroke:none;stroke-width:2;stroke-linecap:round;stroke-linejoin:round;stroke-miterlimit:4;stroke-dasharray:none;stroke-dashoffset:0;stroke-opacity:1"
           d="M 27 5 L 27 7 L 29 7 L 29 5 L 27 5 z M 29 7 L 29 9 L 31 9 L 31 7 L 29 7 z M 31 7 L 33 7 L 33 5 L 31 5 L 31 7 z M 33 7 L 33 9 L 35 9 L 35 7 L 33 7 z M 35 7 L 37 7 L 37 5 L 35 5 L 35 7 z M 37 7 L 37 9 L 39 9 L 39 7 L 37 7 z M 39 7 L 41 7 L 41 5 L 39 5 L 39 7 z M 41 7 L 41 9 L 43 9 L 43 7 L 41 7 z M 41 12 L 41 14 L 43 14 L 43 12 L 41 12 z M 41 14 L 39 14 L 39 16 L 41 16 L 41 14 z M 41 16 L 41 18 L 43 18 L 43 16 L 41 16 z M 41 18 L 39 18 L 39 20 L 41 20 L 41 18 z M 41 20 L 41 22 L 43 22 L 43 20 L 41 20 z M 5 25 L 5 27 L 7 27 L 7 25 L 5 25 z M 7 27 L 7 29 L 9 29 L 9 27 L 7 27 z M 7 29 L 5 29 L 5 31 L 7 31 L 7 29 z M 7 31 L 7 33 L 9 33 L 9 31 L 7 31 z M 7 33 L 5 33 L 5 35 L 7 35 L 7 33 z M 5 37 L 5 43 L 11 43 L 5 37 z M 15 39 L 15 41 L 17 41 L 17 39 L 15 39 z M 17 41 L 17 43 L 19 43 L 19 41 L 17 41 z M 19 41 L 21 41 L 21 39 L 19 39 L 19 41 z M 21 41 L 21 43 L 23 43 L 23 41 L 21 41 z M 23 41 L 25 41 L 25 39 L 23 39 L 23 41 z M 25 41 L 25 43 L 27 43 L 27 41 L 25 41 z M 15 41 L 13 41 L 13 43 L 15 43 L 15 41 z "
           transform="translate(0,266.64999)"
           id="rect998-9" />
        <path
           style="opacity:1;fill:#398b9cbef;fill-opacity:1;stroke:none;stroke-width:2.5;stroke-linecap:round;stroke-linejoin:round;stroke-miterlimit:4;stroke-dasharray:none;stroke-opacity:1"
           d="m 16.5,280.64999 h 15 c 1.385,0 2.5,1.115 2.5,2.5 v 15 c 0,1.385 -1.115,2.5 -2.5,2.5 h -15 c -1.385,0 -2.5,-1.115 -2.5,-2.5 v -15 c 0,-1.385 1.115,-2.5 2.5,-2.5 z"
           id="rect905"
           inkscape:connector-curvature="0" />
        <path
           style="opacity:1;fill:#59bdfc;fill-opacity:1;stroke:none;stroke-width:2.57142854;stroke-linecap:round;stroke-linejoin:round;stroke-miterlimit:4;stroke-dasharray:none;stroke-opacity:1"
           d="M 16.285714,281.64999 C 15.573429,281.64999 15,282.22342 15,282.9357 v 15.42858 c 0,0.71229 0.573429,1.28571 1.285714,1.28571 H 31.714286 C 32.426571,299.64999 33,299.07656 33,298.36428 V 282.9357 c 0,-0.71228 -0.573429,-1.28571 -1.285714,-1.28571 z m 5.714286,1 h 3 v 1 h -3 z m 4,0 h 5 v 1 h -5 z m -3,2 h 3 v 1 h -3 z m 4,0 h 4 v 1 h -4 z m -11,10 4,4 h -4 z"
           id="rect907"
           inkscape:connector-curvature="0"
           sodipodi:nodetypes="ssssssssscccccccccccccccccccccccc" />
      </g>
    </g>
  </g>
</svg>
